X:1
T:Title
%%score { ( 1 3 ) | ( 2 4 ) }
L:1/8
M:4/4
K:Ab
V:1 treble nm="Grand Piano"
V:3 treble 
V:2 bass 
V:4 bass 
V:1
 z4 z2[Q:1/4=100] [Ec][DB] | [CA]>[CE] [CE][CE] [CE][CE][CA][EG] | z2 DD D2 [Fd][Fc] | %3
 [GB]>E EE EGBd | c6 z2 | [CA]>[CE] [CE][CE] [CE][CE][CA][EG] |[M:3/4] F6 |[M:1/4] [Fd][Fc] | %8
[M:4/4] [GB]>E EE GBdG |[M:3/4] [CEA]6 |[M:1/4] cA |[M:4/4] e6 z2 | e6 z2 | e>e ee eedc | B6 z2 | %15
[M:3/4] e6 |[M:1/4] cA |[M:4/4] e6 z2 | e>e ee e[FAd][EAc][DEB] |[M:7/8] A-A-A- A- A3 |] %20
V:2
 z4 z2 [A,,A,][A,,A,] | [A,,A,]>[A,,A,] [A,,A,][A,,A,] [A,,A,][A,,A,][A,,A,][C,A,] | %2
 [D,A,D]2 [D,A,][D,A,] [D,A,]2 [D,A,][D,A,] | [E,D]>[E,D] [E,D][E,D] [E,D][E,DE][E,DE][E,B,E] | %4
 [A,E]2 A,A, A,2 [A,E][A,D] | [A,,A,]>[A,,A,] [A,,A,][A,,A,] [A,,A,][A,,A,][A,,A,][C,A,] | %6
[M:3/4] [D,A,D]2 [D,A,][D,A,] [D,A,]2 |[M:1/4] [D,A,][D,A,] | %8
[M:4/4] [E,D]>[E,D] [E,D][E,D] [E,DE][E,DE][E,B,E][E,DE] |[M:3/4] A,,6 |[M:1/4] z2 | %11
[M:4/4] z2 [E,B,][E,D] [A,C]2 z2 | z2 [E,B,][E,D][K:treble] [A,C]2 [A,A][A,B,A] | %13
 [A,CA]>[A,CA] [A,CA][A,CA] [A,CA][A,CA][K:bass][G,B,E][A,E] | [E,E]2 [E,E][E,E] [E,E]2 z2 | %15
[M:3/4] z2 [E,B,][E,D] [A,C]2 |[M:1/4] z2 |[M:4/4] z2 [E,B,][E,D][K:treble] [A,C]2 [A,A][A,B,A] | %18
 [A,CA]>[A,CA] [A,CA][A,CA] [A,CA][K:bass]D,E,E, |[M:7/8] z CD D C3 |] %20
V:3
 x8 | x8 | F6 z2 | x8 | z2 EE E2 cB | x8 |[M:3/4] z2 DD D2 |[M:1/4] x2 |[M:4/4] x8 |[M:3/4] x6 | %10
[M:1/4] x2 |[M:4/4] z2 GB A2 cA | z2 GB A2 cd | x8 | G2 GG G2 cA |[M:3/4] z2 GB A2 |[M:1/4] x2 | %17
[M:4/4] z2 GB A2 cd | x8 |[M:7/8] [CE]EF F E3 |] %20
V:4
 x8 | x8 | x8 | x8 | x8 | x8 |[M:3/4] x6 |[M:1/4] x2 |[M:4/4] x8 |[M:3/4] x6 |[M:1/4] x2 | %11
[M:4/4] x8 | x4[K:treble] x4 | x6[K:bass] x2 | x8 |[M:3/4] x6 |[M:1/4] x2 | %17
[M:4/4] x4[K:treble] x4 | x5[K:bass] x3 |[M:7/8] A,,-A,,-A,,- A,,- A,,3 |] %20

